X:556
T:Conkinata
Z:Jack Campin, http://www.campin.me.uk/
F:Jack Campin's Nine-Note Tunebook
% last edit 03-02-2013
G:Bulgarian part song
S:a file called Fakebook_Bulgarian_Music.pdf off the web
Z:Birgitt Karlson 2003
M:5/8
L:1/8
K:DMix
P:instrumental
|:A2  cBA|B2 BAG|A2 GFE|FG A3 |
  A2 _BAG|A2 GFE|FG A2G|F2 F3:|
P:vocal
|:[F2A2] [F3A3]|[F2A2] [E2G2] [FA]|[E2G2]    [D3F3]    |   [F2-A2-] [F3A3]     |
  [F2A2] [F3A3]|[F2A2] [E2G2] [FA]|[E2G2]    [D3F3]    |   [D2-F2-] [D3F3]    :|
|:[G2B2] [G3B3]|[G2B2] [G3B3]     |[GB][A^c] [G2B2][FA]|   [F2-A2-] [F2A2] [DF]|
  [F2A2] [F3A3]|[F2A2] [E2G2] [FA]|[E2G2]    [D3F3]    |[1 [F2-A2-] [F3A3]    :|\
                                                        [2 [D2-F2-] [D3F3]    |]
P:instrumental
|:A2  cBA|B2 BAG|A2 GFE|FG A3 |
  A2 _BAG|A2 GFE|FG A2G|F2 F3:|

